material/.icons/material/roman-numeral-6.svg

<svg xmlns="http://www.w3.org/2000/svg" viewBox="0 0 24 24"><path d="M6 7l2 10h2l2-10h-2l-1 5-1-5H6m11 0v2h-1v6h1v2h-4v-2h1V9h-1V7h4z"/></svg>

<?xml version="1.0" encoding="UTF-8"?><!DOCTYPE svg PUBLIC "-//W3C//DTD SVG 1.1//EN" "http://www.w3.org/Graphics/SVG/1.1/DTD/svg11.dtd"><svg xmlns="http://www.w3.org/2000/svg" xmlns:xlink="http://www.w3.org/1999/xlink" version="1.1" id="mdi-roman-numeral-6" width="24" height="24" viewBox="0 0 24 24"><path d="M6 7L8 17H10L12 7H10L9 12L8 7H6M17 7V9H16V15H17V17H13V15H14V9H13V7H17Z" /></svg>
